static char *mouse_xpm[][13] = {
{"12 10 2 1",
".	c #00000000",
" 	c #00ff0033",
"            ",
"      .     ",
"     ...    ",
"    .....   ",
"   .......  ",
"  ......... ",
" ...........",
"      ..    ",
"      ..    ",
"            ",
},
{"12 10 2 1",
" 	c #d8e0e533",
".	c #00000000",
".           ",
".           ",
".           ",
".           ",
".           ",
".           ",
".           ",
".           ",
".           ",
".           ",
},
{"12 10 2 1",
".	c #FFFFFF33",
" 	c #00ff0033",
"            ",
"      .     ",
"     ...    ",
"    .....   ",
"   .......  ",
"  ......... ",
" ...........",
"      ..    ",
"      ..    ",
"            ",
},

};
