static char * characters_xpm[][23] = 
{
{
"24 20 2 1",
" 	c #FFFFFF33",
".	c #00000000",
"                        ",
"        ........        ",
"      ............      ",
"     ....        ....   ",
"    ....          ....  ",
"   ....            .... ",
"  ....              ....",
"  ....                  ",
" ....                   ",
" ....                   ",
" ....                   ",
" ....                   ",
" ....                   ",
"  ....              ....",
"  ....              ....",
"   ....            .... ",
"    ....          ....  ",
"     ....        ....   ",
"      ............      ",
"        ........        ",
},
{
"24 20 2 1",
" 	c #FFFFFF33",
".	c #00000000",
"                        ",
"   .............        ",
"  ...............       ",
"  ....         ....     ",
"  ....          ....    ",
"  ....          ....    ",
"  ....          ....    ",
"  ....         ....     ",
"  ...............       ",
"  ............          ",
"  ....   .....          ",
"  ....     ....         ",
"  ....      ....        ",
"  ....      ....        ",
"  ....       ....       ",
"  ....        ....      ",
"  ....         ....     ",
"  ....          ....    ",
"  ....           ....   ",
"                        ",
},
{
"24 20 2 1",
" 	c #FFFFFF33",
".	c #00000000",
"                        ",
"  ..................    ",
"  ..................    ",
"           ....         ",
"           ....         ",
"           ....         ",
"           ....         ",
"           ....         ",
"           ....         ",
"           ....         ",
"           ....         ",
"           ....         ",
"           ....         ",
"           ....         ",
"           ....         ",
"           ....         ",
"           ....         ",
"  ..................    ",
"  ..................    ",
"                        ",
},
{
"24 20 2 1",
" 	c #FFFFFF33",
".	c #00000000",
"                        ",
"  ....        ....      ",
"  .....      .....      ",
"  ......    ......      ",
"  .......  .......      ",
"  ................      ",
"  ....  ....  ....      ",
"  ....  ....  ....      ",
"  ....   ..   ....      ",
"  ....        ....      ",
"  ....        ....      ",
"  ....        ....      ",
"  ....        ....      ",
"  ....        ....      ",
"  ....        ....      ",
"  ....        ....      ",
"  ....        ....      ",
"  ....        ....      ",
"  ....        ....      ",
"  ....        ....      ",
}
};
