/* XPM */
static char * white_xpm[][13] = 
{{"12 10 2 1",
" 	c #00008B", /* Dark Blue */
".	c #FFFFFF", /* White */
"    ....    ",
"   .    .   ",
"  .      .  ",
" .        . ",
" .        . ",
" .......... ",
" .        . ",
" .        . ",
" .        . ",
"            ",
},
{
"12 10 2 1",
" 	c #00008B", /* Dark Blue */
".	c #FFFFFF", /* White */
"            ",
" .........  ",
" .      ..  ",
" .      ..  ",
" .      ..  ",
" .........  ",
" .      ..  ",
" .      ..  ",
" .      ..  ",
" .........  ",
},
{
"12 10 2 1",
" 	c #00008B", /* Dark Blue */
".	c #FFFFFF", /* White */
"            ",
"   ......   ",
" .      ..  ",
" .          ",
" .          ",
" .          ",
" .          ",
" .      ..  ",
"   ......   ",
"            ",
},
{
"12 10 2 1",
" 	c #00008B", /* Dark Blue */
".	c #FFFFFF", /* White */
"            ",
" ........   ",
" .      ..  ",
" .      ..  ",
" .      ..  ",
" .      ..  ",
" .      ..  ",
" .      ..  ",
" ........   ",
"            ",
},
{
"12 10 2 1",
" 	c #00008B", /* Dark Blue */
".	c #FFFFFF", /* White */
"            ",
" .......... ",
" .          ",
" .          ",
" .......... ",
" .          ",
" .          ",
" .          ",
" .......... ",
"            ",
},
{
"12 10 2 1",
" 	c #00008B", /* Dark Blue */
".	c #FFFFFF", /* White */
"            ",
" .......... ",
" .          ",
" .          ",
" .......... ",
" .          ",
" .          ",
" .          ",
" .          ",
"            ",
},
{
"12 10 2 1",
" 	c #00008B", /* Dark Blue */
".	c #FFFFFF", /* White */
"            ",
"   ......   ",
" .          ",
" .          ",
" .    ..... ",
" .      ..  ",
" .      ..  ",
" .      ..  ",
"   ......   ",
"            ",
},
{
"12 10 2 1",
" 	c #00008B", /* Dark Blue */
".	c #FFFFFF", /* White */
"            ",
" .      ..  ",
" .      ..  ",
" .      ..  ",
" .........  ",
" .      ..  ",
" .      ..  ",
" .      ..  ",
" .      ..  ",
"            ",
},
{
"12 10 2 1",
" 	c #00008B", /* Dark Blue */
".	c #FFFFFF", /* White */
"            ",
" .......... ",
"     ..     ",
"     ..     ",
"     ..     ",
"     ..     ",
"     ..     ",
"     ..     ",
" .......... ",
"            ",
},
{
"12 10 2 1",
" 	c #00008B", /* Dark Blue */
".	c #FFFFFF", /* White */
"            ",
" .......... ",
"      ..    ",
"      ..    ",
"      ..    ",
"      ..    ",
" .    ..    ",
" .    ..    ",
"   ....     ",
"            ",
},
{
"12 10 2 1",
" 	c #00008B", /* Dark Blue */
".	c #FFFFFF", /* White */
"            ",
" .      ..  ",
" .     ..   ",
" .    ..    ",
" .   ..     ",
" .  ..      ",
" .   ..     ",
" .    ..    ",
" .      ..  ",
"            ",
},
{
"12 10 2 1",
" 	c #00008B", /* Dark Blue */
".	c #FFFFFF", /* White */
"            ",
" .          ",
" .          ",
" .          ",
" .          ",
" .          ",
" .          ",
" .          ",
" .......... ",
"            ",
},
{
"12 10 2 1",
" 	c #00008B", /* Dark Blue */
".	c #FFFFFF", /* White */
"            ",
" .      ..  ",
" .      ..  ",
" . .  . ..  ",
" .  ..  ..  ",
" .      ..  ",
" .      ..  ",
" .      ..  ",
" .      ..  ",
"            ", 
},
{
"12 10 2 1",
" 	c #00008B", /* Dark Blue */
".	c #FFFFFF", /* White */
"            ",
" .      ..  ",
" .      ..  ",
" . .    ..  ",
" .  ..  ..  ",
" .    . ..  ",
" .      ..  ",
" .      ..  ",
" .      ..  ",
"            ",
},
{
"12 10 2 1",
" 	c #00008B", /* Dark Blue */
".	c #FFFFFF", /* White */
"            ",
"   ......   ",
" .      ..  ",
" .      ..  ",
" .      ..  ",
" .      ..  ",
" .      ..  ",
" .      ..  ",
"   ......   ",
"            ",
},
{
"12 10 2 1",
" 	c #00008B", /* Dark Blue */
".	c #FFFFFF", /* White */
"            ",
" .......... ",
" .       .. ",
" .       .. ",
" .......... ",
" .          ",
" .          ",
" .          ",
" .          ",
"            ",
},
{
"12 10 2 1",
" 	c #00008B", /* Dark Blue */
".	c #FFFFFF", /* White */
"            ",
"   ......   ",
" .      ..  ",
" .      ..  ",
" .      ..  ",
" .   .  ..  ",
" .    .. .  ",
" .      ..  ",
"   .......  ",
"            ",
},
{
"12 10 2 1",
" 	c #00008B", /* Dark Blue */
".	c #FFFFFF", /* White */
"            ",
" .......... ",
" .      ..  ",
" .      ..  ",
" .........  ",
" .  .       ",
" .   .      ",
" .    .     ",
" .      ..  ",
"            ",
},
{
"12 10 2 1",
" 	c #00008B", /* Dark Blue */
".	c #FFFFFF", /* White */
"            ",
"   ......   ",
" .          ",
" .          ",
"   ......   ",
"         .  ",
"         .  ",
"         .  ",
"   ......   ",
"            ",
},
{
"12 10 2 1",
" 	c #00008B", /* Dark Blue */
".	c #FFFFFF", /* White */
"            ",
" .......... ",
"     ..     ",
"     ..     ",
"     ..     ",
"     ..     ",
"     ..     ",
"     ..     ",
"     ..     ",
"            ",
},
{
"12 10 2 1",
" 	c #00008B", /* Dark Blue */
".	c #FFFFFF", /* White */
"            ",
" .      ..  ",
" .      ..  ",
" .      ..  ",
" .      ..  ",
" .      ..  ",
" .      ..  ",
" .      ..  ",
"   ......   ",
"            ",
},
{
"12 10 2 1",
" 	c #00008B", /* Dark Blue */
".	c #FFFFFF", /* White */
"            ",
" .      ..  ",
" .      ..  ",
" .      ..  ",
"  .    ..   ",
"  .    ..   ",
"   .  ..    ",
"   .  ..    ",
"    ..      ",
"            ",
},
{
"12 10 2 1",
" 	c #00008B", /* Dark Blue */
".	c #FFFFFF", /* White */
"            ",
" .      ..  ",
" .      ..  ",
" .      ..  ",
" .      ..  ",
" . .  . ..  ",
" .  ..  ..  ",
" .      ..  ",
" .      ..  ",
"            ",
},
{
"12 10 2 1",
" 	c #00008B", /* Dark Blue */
".	c #FFFFFF", /* White */
"            ",
" .      ..  ",
"  .    ..   ",
"   .  ..    ",
"    ..      ",
"    ..      ",
"   .  ..    ",
"  .    ..   ",
" .      ..  ",
"            ",
},
{
"12 10 2 1",
" 	c #00008B", /* Dark Blue */
".	c #FFFFFF", /* White */
"            ",
" .      ..  ",
"  .    ..   ",
"   .  ..    ",
"    ....    ",
"     ..     ",
"     ..     ",
"     ..     ",
"     ..     ",
"            ",
},
{
"12 10 2 1",
" 	c #00008B", /* Dark Blue */
".	c #FFFFFF", /* White */
"            ",
" .......... ",
"        ..  ",
"       ..   ",
"      ..    ",
"     ..     ",
"    ..      ",
"   ..       ",
"  ..        ",
" .......... ",
},
{
"12 10 2 1",
" 	c #00008B", /* Dark Blue */
".	c #FFFFFF", /* White */
"            ",
"            ",
"            ",
"            ",
"            ",
"            ",
"            ",
"            ",
"            ",
"            ",
},
{
"12 10 2 1",
" 	c #00008B", /* Dark Blue */
".	c #FFFFFF", /* White */
"            ",
"            ",
"            ",
"            ",
"            ",
"            ",
"            ",
"            ",
"            ",
"            ",
},
{
"12 10 2 1",
" 	c #00008B", /* Dark Blue */
".	c #FFFFFF", /* White */
"            ",
"   ......   ",
" .      ..  ",
" .     ...  ",
" .    . ..  ",
" .   .  ..  ",
" .  .   ..  ",
" . ..   ..  ",
"   ......   ",
"            ",
},
{
"12 10 2 1",
" 	c #00008B", /* Dark Blue */
".	c #FFFFFF", /* White */
"            ",
"    ...     ",
"   ....     ",
"  .  ..     ",
"     ..     ",
"     ..     ",
"     ..     ",
"     ..     ",
"   ......   ",
"            ",
},
{
"12 10 2 1",
" 	c #00008B", /* Dark Blue */
".	c #FFFFFF", /* White */
"            ",
"   ......   ",
" .      ..  ",
"        ..  ",
"       ..   ",
"      ..    ",
"     ..     ",
"    ..      ",
"   ........ ",
"            ",
},
{
"12 10 2 1",
" 	c #00008B", /* Dark Blue */
".	c #FFFFFF", /* White */
"            ",
"   ......   ",
" .      ..  ",
"        ..  ",
"    ....    ",
"        ..  ",
"        ..  ",
" .      ..  ",
"   ......   ",
"            ",
},
{
"12 10 2 1",
" 	c #00008B", /* Dark Blue */
".	c #FFFFFF", /* White */
"            ",
"     ..     ",
"    ...     ",
"   ....     ",
"  .. ..     ",
" ..  ..     ",
" .......... ",
"      ..    ",
"      ..    ",
"            ",
},
{
"12 10 2 1",
" 	c #00008B", /* Dark Blue */
".	c #FFFFFF", /* White */
"            ",
"  ........  ",
"  ..        ",
"  ..        ",
"  ......    ",
"        ..  ",
"        ..  ",
" .      ..  ",
"   ......   ",
"            ",
},
{
"12 10 2 1",
" 	c #00008B", /* Dark Blue */
".	c #FFFFFF", /* White */
"            ",
"   ......   ",
" .      ..  ",
" .          ",
" .  .....   ",
" ..     ..  ",
" .      ..  ",
" .      ..  ",
"   ......   ",
"            ",
},
{
"12 10 2 1",
" 	c #00008B", /* Dark Blue */
".	c #FFFFFF", /* White */
"            ",
" .......... ",
"        ..  ",
"       ..   ",
"      ..    ",
"     ..     ",
"    ..      ",
"    ..      ",
"    ..      ",
"            ",
},
{
"12 10 2 1",
" 	c #00008B", /* Dark Blue */
".	c #FFFFFF", /* White */
"            ",
"   ......   ",
" .      ..  ",
" .      ..  ",
"   ......   ",
" .      ..  ",
" .      ..  ",
" .      ..  ",
"   ......   ",
"            ",
},
{
"12 10 2 1",
" 	c #00008B", /* Dark Blue */
".	c #FFFFFF", /* White */
"            ",
"   ......   ",
" .      ..  ",
" .      ..  ",
" .      ..  ",
"   .... ..  ",
"        ..  ",
" .      ..  ",
"   ......   ",
"            ",
},
{
"12 10 2 1",
" 	c #00008B", /* Dark Blue */
".	c #FFFFFF", /* White */
"            ",
"   ......   ",
" .      ..  ",
" .      ..  ",
" .      ..  ",
"   .... ..  ",
"        ..  ",
" .      ..  ",
"   ......   ",
"            ",
},
{
"12 10 2 1",
" 	c #00008B", /* Dark Blue */
".	c #FFFFFF", /* White */
"            ",
"            ",
"            ",
"            ",
"            ",
"   .......  ",
"            ",
"            ",
"            ",
"            ",
},
{
"12 10 2 1",
" 	c #00008B", /* Dark Blue */
".	c #FFFFFF", /* White */
"            ",
"   .......  ",
"   ..       ",
"   ..       ",
"   ..       ",
"   ..       ",
"   ..       ",
"   ..       ",
"   ..       ",
"   .......  ",
},
{
"12 10 2 1",
" 	c #00008B", /* Dark Blue */
".	c #FFFFFF", /* White */
"            ",
"  .......   ",
"       ..   ",
"       ..   ",
"       ..   ",
"       ..   ",
"       ..   ",
"       ..   ",
"       ..   ",
"  .......   ",
}
};
